**kern	**kern	**dynam
*part1	*part1	*part1
*staff2	*staff1	*
*I"Piano	*	*
*clefF4	*clefG2	*
*k[f#c#g#]	*k[f#c#g#]	*
=1	=1	=1
*	*^	*
4D') 4A]	8.ff#L]	4.f#]	.
.	16ddK	.	.
[8B	8bJ)	.	.
*	*v	*v	*
8E 8B]	8d 8g#X	.
8r	8r	.
(8E 8B	([8d [8e	.
=	=	=
8GG#')	8d]) 8e] 8ee	.
8r	8r	.
(8A 8e	([8gn [8a	.
8C#')	8g]) 8a] 8aa	.
8r	8r	.
(8A 8f#	([8f# [8ff#	.
=	=	=
4D')	8.f#L] 8.ff#]	.
.	16ddK	.
(8E 8B	8dJ) 8g#X	.
8AA')	8c# 8a	.
8r	8r	.
(8E 8B	([8d [8e	p
=	=	=
8GG#')	8d]) 8e] 8ee	.
8r	8r	.
(8A 8e	([8gn [8a	.
8C#')	8g]) 8a] 8aa	.
8r	8r	.
([8A 8f#	([8f# [8ff#	.
=	=	=
*	*^	*
4D') 4A]	8.ff#L]	4.f#]	.
.	16ddK	.	.
[8B	8bJ)	.	.
*	*v	*v	*
8E 8B]	8d 8g#X	.
8r	8r	.
(8E 8B	([8d [8e	.
=	=	=
8GG#')	8d]) 8e] 8ee	.
8r	8r	.
(8A 8e	([8gn [8a	.
8C#')	8g]) 8a] 8aa	.
8r	8r	.
(8A 8f#	([8f# [8ff#	.
=	=	=
4D')	8.f#L] 8.ff#]	.
.	16ddK	.
(8E 8B	8dJ) 8g#X	.
8AA)	8c# 8a	.
8r	8r	.
8r	8r	.
==	==	==
*-	*-	*-
!!!system-decoration: {(s1,s2)}
